icons/4_Outdated/MangaDex v1.svg

<svg width="1024" height="1024" viewBox="0 0 1024 1024" fill="none" xmlns="http://www.w3.org/2000/svg">
<g clip-path="url(#clip0_3_590)">
<path d="M512 1024C794.77 1024 1024 794.77 1024 512C1024 229.23 794.77 0 512 0C229.23 0 0 229.23 0 512C0 794.77 229.23 1024 512 1024Z" fill="#F8C18C"/>
<path d="M735.6 565.998C735.6 570.798 731.7 574.698 726.9 574.698H334.5C329.7 574.698 325.8 570.798 325.8 565.998C325.8 561.198 329.7 557.298 334.5 557.298H726.8C731.7 557.298 735.6 561.198 735.6 565.998ZM507.4 650.998C505.5 649.098 503.5 647.398 501.4 645.698C479.5 650.198 461.5 665.198 453 685.298C459.2 686.698 464.7 690.098 468.7 694.898C469.4 695.798 470.1 696.698 470.7 697.598C473 701.098 474.6 705.098 475.2 709.498C475.2 709.698 475.3 709.898 475.3 710.098C475.4 710.998 475.5 711.898 475.5 712.798V714.098C475.6 717.698 476.3 721.098 477.6 724.298C479.9 730.098 484 734.898 489.2 738.098C493.6 740.798 498.8 742.398 504.4 742.398C518.5 742.398 530.3 732.298 532.8 718.898C533 717.798 533.2 716.698 533.3 715.498V712.798C533.3 702.898 531.6 693.398 528.6 684.598C524.191 671.927 516.939 660.433 507.4 650.998ZM726.8 590.298H334.5C329.7 590.298 325.8 594.198 325.8 598.998C325.8 603.798 329.7 607.698 334.5 607.698H662.6V656.198L687.6 641.698L712.6 656.198V607.698H726.8C731.6 607.698 735.5 603.798 735.5 598.998C735.6 594.198 731.7 590.298 726.8 590.298ZM636.2 543.598C638.5 542.098 640.6 540.498 642.7 538.998H641.1C639.5 540.498 637.8 541.998 636.2 543.598ZM781.4 466.498C781 463.998 780.3 461.598 779.5 459.298C779.3 459.198 779.2 458.998 779 458.898C778.8 458.798 778.7 458.598 778.5 458.498C777.7 457.798 776.9 457.098 776.1 456.298C775.3 455.498 774.5 454.798 773.8 453.998C771.7 455.298 770 456.998 768.7 459.198C767.5 461.298 766.8 463.798 766.8 466.398C766.8 470.398 768.4 473.998 771 476.598C773.6 479.198 777.2 480.798 781.2 480.798H781.4C781.4 480.498 781.5 480.198 781.6 479.898C781.7 479.598 781.7 479.298 781.7 478.998C781.8 478.198 781.9 477.398 781.9 476.598C781.9 475.798 782 474.998 782 474.098C782.1 471.498 781.9 468.998 781.4 466.498ZM780.5 485.598C777.9 495.398 772.1 503.898 764.2 509.798C763.8 510.098 763.4 510.298 763 510.598C762.7 510.798 762.4 510.998 762.1 511.298C758.6 514.098 755.9 517.898 754.6 522.298C754.5 522.598 754.4 522.998 754.3 523.398C751.4 532.498 742.8 538.998 732.8 538.998H642.8C644.6 537.698 646.5 536.398 648.4 535.298C650.5 533.998 652.5 532.698 654.6 531.498L661.1 528.098C669.9 523.898 678.8 520.098 688.2 517.298C697.5 514.398 707 512.198 716.6 510.398C721.4 509.498 726.2 508.798 731.1 508.198C736 507.498 740.8 507.098 745.8 506.698C735.9 505.798 726 506.298 716.2 507.498C706.3 508.598 696.6 510.798 687.1 513.698C677.6 516.598 668.4 520.598 659.8 525.498C653.1 529.198 646.9 533.898 641.2 538.998H343.7C319.6 538.998 300.2 558.498 300.2 582.498C300.2 583.498 300.2 584.498 300.3 585.398C301.8 607.798 320.3 625.598 343 625.898H446.4C454.8 625.898 463 627.098 470.8 629.398C479.1 631.798 486.9 635.498 494 640.198C472.7 646.398 455.3 661.798 446.5 682.498L445.7 684.498H322.3C308.5 684.198 295.5 680.398 284.2 673.998C265.8 663.698 251.7 646.498 245.5 625.898C243.2 618.298 242 610.298 242 601.998V553.798C242 548.798 242.2 543.798 242.6 538.898C248 467.698 292.4 407.298 354.4 378.898C373.6 370.098 394.5 364.398 416.5 362.398C422.3 361.898 428.3 361.598 434.2 361.598C456.9 361.598 478.7 365.498 499 372.798C505.8 375.198 512.3 377.998 518.7 381.098C520.7 382.098 522.7 383.098 524.7 384.198C524.9 383.898 525.1 383.498 525.3 383.198C526.9 380.398 528.5 377.698 530.2 374.998C531.9 372.298 533.6 369.598 535.5 366.998C544.7 353.798 555.3 341.798 567.2 331.098C595.5 305.698 630.9 288.098 670 281.598C670.3 281.498 670.6 281.498 671 281.398H671.4C674.5 281.398 677 283.898 677 286.998C677 287.498 676.9 287.898 676.8 288.298C639.3 296.198 611.2 329.498 611.2 369.298C611.2 373.298 611.5 377.298 612.1 381.198C625.8 368.498 641.7 358.298 659.3 351.098V349.098C659.3 326.798 665.7 305.998 676.9 288.498C676.8 288.998 676.6 289.398 676.4 289.798C668.6 303.898 664.2 319.998 664.2 337.198C664.2 338.698 664.2 340.198 664.3 341.698C664.8 341.798 665.3 341.998 665.8 342.098C669 342.898 672.1 343.798 675.2 344.798C676.6 345.298 678 345.798 679.3 346.298C681.5 347.098 683.7 347.798 685.8 348.698C687.4 349.298 688.9 350.098 690.4 350.798C692.3 351.598 694.2 352.498 696 353.398C697.6 354.198 699.2 355.098 700.8 355.998C702.5 356.898 704.1 357.798 705.8 358.798C707.4 359.798 709.1 360.798 710.7 361.798C712.2 362.798 713.7 363.698 715.2 364.798C716.8 365.898 718.4 367.098 720 368.298C721.4 369.298 722.7 370.398 724 371.398C725.6 372.698 727.2 373.998 728.7 375.298C729.9 376.398 731.1 377.398 732.3 378.498C733.8 379.898 735.4 381.398 736.9 382.898L738.1 384.098C739.8 385.898 741.6 387.598 743.2 389.398C743.4 389.698 743.7 389.898 743.9 390.198C746.4 393.198 748.1 396.998 748.8 400.998V401.098C748.9 401.798 749 402.498 749 403.198C750.5 414.698 754.2 425.498 759.7 435.198C759.7 435.298 759.8 435.398 759.8 435.498C762.9 440.798 766.5 445.698 770.6 450.298C768.2 451.898 766.1 454.098 764.6 456.598C762.9 459.498 762 462.798 762 466.198C762 471.398 764 476.198 767.7 479.798C771.1 483.498 775.6 485.398 780.5 485.598ZM686.4 436.498C686.4 439.498 688.9 441.998 691.9 441.998C692.8 441.998 693.6 441.798 694.3 441.398C694.5 441.298 694.6 441.198 694.8 441.098C694.8 441.098 694.9 441.098 694.9 440.998C696.2 440.298 697.6 439.698 699 439.098C700.5 438.498 702.1 438.098 703.7 437.798C705.6 437.398 707.6 437.198 709.6 437.198C710.4 437.198 711.3 437.198 712.1 437.298C716.7 437.698 721 439.098 724.9 441.298C725.7 441.698 726.6 441.998 727.5 441.998C730.5 441.998 733 439.498 733 436.498C733 434.598 732 432.898 730.6 431.998C730.4 431.898 730.3 431.798 730.1 431.698C729.4 431.298 728.7 430.898 728 430.598C724.6 428.898 720.9 427.698 717 427.098C716.1 426.898 715.2 426.798 714.3 426.698C713.2 426.598 712.1 426.498 711 426.498C710.6 426.498 710.2 426.398 709.8 426.398C707 426.398 704.3 426.698 701.7 427.198C701.4 427.298 701.2 427.298 700.9 427.298C698 427.898 695.3 428.898 692.7 430.098C691.6 430.598 690.5 430.998 689.4 431.598C689.2 431.698 689 431.798 688.9 431.898L688.6 432.198C687.2 433.298 686.4 434.798 686.4 436.498ZM746.5 496.298C737.1 493.298 727.3 491.698 717.4 490.598C707.5 489.598 697.6 489.598 687.6 490.298C677.7 490.998 667.8 492.998 658.3 495.998C648.8 498.898 639.8 503.298 631.5 508.598C636.2 506.898 640.4 504.398 645.2 503.098C647.5 502.298 649.8 501.398 652.1 500.698L659.2 498.798C668.7 496.598 678.2 494.798 688 494.098C697.7 493.298 707.4 493.098 717.2 493.398C722.1 493.598 727 493.898 731.9 494.398C736.7 494.898 741.6 495.598 746.5 496.298ZM750.7 487.398C741.8 482.998 732.4 479.898 722.8 477.498C713.2 474.998 703.3 473.598 693.4 472.798C683.5 472.098 673.5 472.598 663.6 473.998C653.7 475.398 644.2 478.498 635.2 482.498C640.1 481.498 644.6 479.698 649.5 479.098C651.9 478.698 654.3 478.098 656.7 477.798L664 476.998C673.7 476.298 683.4 475.898 693.1 476.698C702.8 477.298 712.5 478.598 722.1 480.398C726.9 481.298 731.7 482.298 736.4 483.498C741.3 484.598 746 485.998 750.7 487.398Z" fill="white"/>
</g>
<defs>
<clipPath id="clip0_3_590">
<rect width="1024" height="1024" fill="white"/>
</clipPath>
</defs>
</svg>

<svg xmlns="http://www.w3.org/2000/svg" viewBox="0 0 1024 1024">
   <circle cx="512" cy="512" r="512" style="fill:#f79421"/>
   <path d="M735.6 566c0 4.8-3.9 8.7-8.7 8.7H334.5c-4.8 0-8.7-3.9-8.7-8.7 0-4.8 3.9-8.7 8.7-8.7h392.3c4.9 0 8.8 3.9 8.8 8.7zm-228.2 85c-1.9-1.9-3.9-3.6-6-5.3-21.9 4.5-39.9 19.5-48.4 39.6 6.2 1.4 11.7 4.8 15.7 9.6.7.9 1.4 1.8 2 2.7 2.3 3.5 3.9 7.5 4.5 11.9 0 .2.1.4.1.6.1.9.2 1.8.2 2.7v1.3c.1 3.6.8 7 2.1 10.2 2.3 5.8 6.4 10.6 11.6 13.8 4.4 2.7 9.6 4.3 15.2 4.3 14.1 0 25.9-10.1 28.4-23.5.2-1.1.4-2.2.5-3.4v-2.7c0-9.9-1.7-19.4-4.7-28.2a87.88 87.88 0 0 0-21.2-33.6zm219.4-60.7H334.5c-4.8 0-8.7 3.9-8.7 8.7 0 4.8 3.9 8.7 8.7 8.7h328.1v48.5l25-14.5 25 14.5v-48.5h14.2c4.8 0 8.7-3.9 8.7-8.7.1-4.8-3.8-8.7-8.7-8.7zm-90.6-46.7c2.3-1.5 4.4-3.1 6.5-4.6h-1.6c-1.6 1.5-3.3 3-4.9 4.6zm145.2-77.1c-.4-2.5-1.1-4.9-1.9-7.2-.2-.1-.3-.3-.5-.4-.2-.1-.3-.3-.5-.4-.8-.7-1.6-1.4-2.4-2.2s-1.6-1.5-2.3-2.3c-2.1 1.3-3.8 3-5.1 5.2-1.2 2.1-1.9 4.6-1.9 7.2 0 4 1.6 7.6 4.2 10.2 2.6 2.6 6.2 4.2 10.2 4.2h.2c0-.3.1-.6.2-.9.1-.3.1-.6.1-.9.1-.8.2-1.6.2-2.4 0-.8.1-1.6.1-2.5.1-2.6-.1-5.1-.6-7.6zm-.9 19.1c-2.6 9.8-8.4 18.3-16.3 24.2-.4.3-.8.5-1.2.8-.3.2-.6.4-.9.7-3.5 2.8-6.2 6.6-7.5 11-.1.3-.2.7-.3 1.1-2.9 9.1-11.5 15.6-21.5 15.6h-90c1.8-1.3 3.7-2.6 5.6-3.7 2.1-1.3 4.1-2.6 6.2-3.8l6.5-3.4c8.8-4.2 17.7-8 27.1-10.8 9.3-2.9 18.8-5.1 28.4-6.9 4.8-.9 9.6-1.6 14.5-2.2 4.9-.7 9.7-1.1 14.7-1.5-9.9-.9-19.8-.4-29.6.8-9.9 1.1-19.6 3.3-29.1 6.2-9.5 2.9-18.7 6.9-27.3 11.8-6.7 3.7-12.9 8.4-18.6 13.5H343.7c-24.1 0-43.5 19.5-43.5 43.5 0 1 0 2 .1 2.9 1.5 22.4 20 40.2 42.7 40.5h103.4c8.4 0 16.6 1.2 24.4 3.5 8.3 2.4 16.1 6.1 23.2 10.8-21.3 6.2-38.7 21.6-47.5 42.3l-.8 2H322.3c-13.8-.3-26.8-4.1-38.1-10.5-18.4-10.3-32.5-27.5-38.7-48.1-2.3-7.6-3.5-15.6-3.5-23.9v-48.2c0-5 .2-10 .6-14.9 5.4-71.2 49.8-131.6 111.8-160 19.2-8.8 40.1-14.5 62.1-16.5 5.8-.5 11.8-.8 17.7-.8 22.7 0 44.5 3.9 64.8 11.2 6.8 2.4 13.3 5.2 19.7 8.3 2 1 4 2 6 3.1.2-.3.4-.7.6-1 1.6-2.8 3.2-5.5 4.9-8.2 1.7-2.7 3.4-5.4 5.3-8 9.2-13.2 19.8-25.2 31.7-35.9 28.3-25.4 63.7-43 102.8-49.5.3-.1.6-.1 1-.2h.4c3.1 0 5.6 2.5 5.6 5.6 0 .5-.1.9-.2 1.3-37.5 7.9-65.6 41.2-65.6 81 0 4 .3 8 .9 11.9 13.7-12.7 29.6-22.9 47.2-30.1v-2c0-22.3 6.4-43.1 17.6-60.6-.1.5-.3.9-.5 1.3-7.8 14.1-12.2 30.2-12.2 47.4 0 1.5 0 3 .1 4.5.5.1 1 .3 1.5.4 3.2.8 6.3 1.7 9.4 2.7 1.4.5 2.8 1 4.1 1.5 2.2.8 4.4 1.5 6.5 2.4 1.6.6 3.1 1.4 4.6 2.1 1.9.8 3.8 1.7 5.6 2.6 1.6.8 3.2 1.7 4.8 2.6 1.7.9 3.3 1.8 5 2.8 1.6 1 3.3 2 4.9 3 1.5 1 3 1.9 4.5 3 1.6 1.1 3.2 2.3 4.8 3.5 1.4 1 2.7 2.1 4 3.1 1.6 1.3 3.2 2.6 4.7 3.9 1.2 1.1 2.4 2.1 3.6 3.2 1.5 1.4 3.1 2.9 4.6 4.4l1.2 1.2c1.7 1.8 3.5 3.5 5.1 5.3.2.3.5.5.7.8 2.5 3 4.2 6.8 4.9 10.8v.1c.1.7.2 1.4.2 2.1 1.5 11.5 5.2 22.3 10.7 32 0 .1.1.2.1.3 3.1 5.3 6.7 10.2 10.8 14.8-2.4 1.6-4.5 3.8-6 6.3-1.7 2.9-2.6 6.2-2.6 9.6 0 5.2 2 10 5.7 13.6 3.4 3.7 7.9 5.6 12.8 5.8zm-94.1-49.1c0 3 2.5 5.5 5.5 5.5.9 0 1.7-.2 2.4-.6.2-.1.3-.2.5-.3 0 0 .1 0 .1-.1 1.3-.7 2.7-1.3 4.1-1.9 1.5-.6 3.1-1 4.7-1.3 1.9-.4 3.9-.6 5.9-.6.8 0 1.7 0 2.5.1 4.6.4 8.9 1.8 12.8 4 .8.4 1.7.7 2.6.7 3 0 5.5-2.5 5.5-5.5 0-1.9-1-3.6-2.4-4.5-.2-.1-.3-.2-.5-.3-.7-.4-1.4-.8-2.1-1.1-3.4-1.7-7.1-2.9-11-3.5-.9-.2-1.8-.3-2.7-.4-1.1-.1-2.2-.2-3.3-.2-.4 0-.8-.1-1.2-.1-2.8 0-5.5.3-8.1.8-.3.1-.5.1-.8.1-2.9.6-5.6 1.6-8.2 2.8-1.1.5-2.2.9-3.3 1.5-.2.1-.4.2-.5.3l-.3.3c-1.4 1.1-2.2 2.6-2.2 4.3zm60.1 59.8c-9.4-3-19.2-4.6-29.1-5.7-9.9-1-19.8-1-29.8-.3-9.9.7-19.8 2.7-29.3 5.7-9.5 2.9-18.5 7.3-26.8 12.6 4.7-1.7 8.9-4.2 13.7-5.5 2.3-.8 4.6-1.7 6.9-2.4l7.1-1.9c9.5-2.2 19-4 28.8-4.7 9.7-.8 19.4-1 29.2-.7 4.9.2 9.8.5 14.7 1 4.8.5 9.7 1.2 14.6 1.9zm4.2-8.9c-8.9-4.4-18.3-7.5-27.9-9.9-9.6-2.5-19.5-3.9-29.4-4.7-9.9-.7-19.9-.2-29.8 1.2-9.9 1.4-19.4 4.5-28.4 8.5 4.9-1 9.4-2.8 14.3-3.4 2.4-.4 4.8-1 7.2-1.3l7.3-.8c9.7-.7 19.4-1.1 29.1-.3 9.7.6 19.4 1.9 29 3.7 4.8.9 9.6 1.9 14.3 3.1 4.9 1.1 9.6 2.5 14.3 3.9z" style="fill:#fff"/>
</svg>
